public/assets/downloads/PRESET_RMB_LIGHTROOM.xmp
<x:xmpmeta xmlns:x="adobe:ns:meta/" x:xmptk="Adobe XMP Core 7.0-c000 1.000000, 0000/00/00-00:00:00">
 <rdf:RDF xmlns:rdf="http://www.w3.org/1999/02/22-rdf-syntax-ns#">
  <rdf:Description rdf:about=""
    xmlns:crs="http://ns.adobe.com/camera-raw-settings/1.0/"
   crs:PresetType="Normal"
   crs:Cluster=""
   crs:UUID="YUX-RMB-LIGHTROOM-PRESET-V2"
   crs:SupportsAmount="True"
   crs:ProcessVersion="11.0"
   crs:Contrast2012="+35"
   crs:Highlights2012="-25"
   crs:Shadows2012="+20"
   crs:Whites2012="+15"
   crs:Blacks2012="-30"
   crs:Clarity2012="+45"
   crs:Dehaze="+20"
   crs:Texture="+35"
   crs:Saturation="-15"
   crs:SplitToningShadowHue="240"
   crs:SplitToningShadowSaturation="18"
   crs:SplitToningHighlightHue="42"
   crs:SplitToningHighlightSaturation="12"
   crs:GrainAmount="40"
   crs:GrainSize="35"
   crs:GrainFrequency="50"
   crs:HasSettings="True">
   <crs:Name>
    <rdf:Alt>
     <rdf:li xml:lang="x-default">YUX // RMB FORENSIC PRESET</rdf:li>
    </rdf:Alt>
   </crs:Name>
  </rdf:Description>
 </rdf:RDF>
</x:xmpmeta>
